Newaita-dark/.DP/16/weather-overcast.svg

<svg xmlns="http://www.w3.org/2000/svg" xmlns:xlink="http://www.w3.org/1999/xlink" width="16px" height="16px" viewBox="0 0 16 16" version="1.1">
<defs>
<linearGradient id="linear0" gradientUnits="userSpaceOnUse" x1="254" y1="233.5" x2="254" y2="254.667007" gradientTransform="matrix(0.03125,0,0,0.03125,0,6.554)">
<stop offset="0" style="stop-color:rgb(0%,0%,0%);stop-opacity:0.275;"/>
<stop offset="1" style="stop-color:rgb(0%,0%,0%);stop-opacity:0;"/>
</linearGradient>
<radialGradient id="radial0" gradientUnits="userSpaceOnUse" cx="450.908997" cy="189.578995" fx="450.908997" fy="189.578995" r="21.167" gradientTransform="matrix(0,-0.03907,-0.07032,0,24.577,31.632)">
<stop offset="0" style="stop-color:rgb(0%,0%,0%);stop-opacity:0.314;"/>
<stop offset="0.222" style="stop-color:rgb(0%,0%,0%);stop-opacity:0.275;"/>
<stop offset="1" style="stop-color:rgb(0%,0%,0%);stop-opacity:0;"/>
</radialGradient>
<radialGradient id="radial1" gradientUnits="userSpaceOnUse" cx="450.908997" cy="189.578995" fx="450.908997" fy="189.578995" r="21.167" gradientTransform="matrix(0,0.03907,0.07032,0,-9.858,-3.93)">
<stop offset="0" style="stop-color:rgb(0%,0%,0%);stop-opacity:0.314;"/>
<stop offset="0.222" style="stop-color:rgb(0%,0%,0%);stop-opacity:0.275;"/>
<stop offset="1" style="stop-color:rgb(0%,0%,0%);stop-opacity:0;"/>
</radialGradient>
<radialGradient id="radial2" gradientUnits="userSpaceOnUse" cx="450.908997" cy="189.578995" fx="450.908997" fy="189.578995" r="21.167" gradientTransform="matrix(0,-0.03907,0.07032,0,-9.858,31.632)">
<stop offset="0" style="stop-color:rgb(0%,0%,0%);stop-opacity:0.314;"/>
<stop offset="0.222" style="stop-color:rgb(0%,0%,0%);stop-opacity:0.275;"/>
<stop offset="1" style="stop-color:rgb(0%,0%,0%);stop-opacity:0;"/>
</radialGradient>
<radialGradient id="radial3" gradientUnits="userSpaceOnUse" cx="450.908997" cy="189.578995" fx="450.908997" fy="189.578995" r="21.167" gradientTransform="matrix(0,0.03907,-0.07032,0,24.577,-3.93)">
<stop offset="0" style="stop-color:rgb(0%,0%,0%);stop-opacity:0.314;"/>
<stop offset="0.222" style="stop-color:rgb(0%,0%,0%);stop-opacity:0.275;"/>
<stop offset="1" style="stop-color:rgb(0%,0%,0%);stop-opacity:0;"/>
</radialGradient>
<linearGradient id="linear1" gradientUnits="userSpaceOnUse" x1="211.667007" y1="-20.5" x2="211.667007" y2="-168.667007" gradientTransform="matrix(0.03125,0,0,0.03125,-0.078,6.698)">
<stop offset="0" style="stop-color:rgb(56.470591%,64.313728%,68.235296%);stop-opacity:1;"/>
<stop offset="1" style="stop-color:rgb(69.01961%,74.509805%,77.254903%);stop-opacity:1;"/>
</linearGradient>
<linearGradient id="linear2" gradientUnits="userSpaceOnUse" x1="960" y1="1695.118042" x2="960" y2="815.117981" gradientTransform="matrix(0.00826902,0.000127302,-0.000127302,0.00826902,0,0)">
<stop offset="0" style="stop-color:rgb(56.470591%,64.313728%,68.235296%);stop-opacity:1;"/>
<stop offset="1" style="stop-color:rgb(69.01961%,74.509805%,77.254903%);stop-opacity:1;"/>
</linearGradient>
</defs>
<g id="surface1">
<path style=" stroke:none;fill-rule:nonzero;fill:url(#linear0);" d="M 3.308594 13.851562 L 11.410156 13.851562 L 11.410156 14.511719 L 3.308594 14.511719 Z M 3.308594 13.851562 "/>
<path style=" stroke:none;fill-rule:nonzero;fill:url(#radial0);" d="M 11.410156 13.851562 L 12.734375 13.851562 L 12.734375 13.191406 L 11.410156 13.191406 Z M 11.410156 13.851562 "/>
<path style=" stroke:none;fill-rule:nonzero;fill:url(#radial1);" d="M 3.308594 13.851562 L 1.984375 13.851562 L 1.984375 14.511719 L 3.308594 14.511719 Z M 3.308594 13.851562 "/>
<path style=" stroke:none;fill-rule:nonzero;fill:url(#radial2);" d="M 3.308594 13.851562 L 1.984375 13.851562 L 1.984375 13.191406 L 3.308594 13.191406 Z M 3.308594 13.851562 "/>
<path style=" stroke:none;fill-rule:nonzero;fill:url(#radial3);" d="M 11.410156 13.851562 L 12.734375 13.851562 L 12.734375 14.511719 L 11.410156 14.511719 Z M 11.410156 13.851562 "/>
<path style=" stroke:none;fill-rule:nonzero;fill:url(#linear1);" d="M 8.699219 1.425781 C 7.898438 1.425781 7.195312 1.828125 6.78125 2.441406 C 6.414062 2.210938 5.988281 2.085938 5.554688 2.089844 C 4.53125 2.089844 3.679688 2.742188 3.460938 3.621094 C 3.054688 3.355469 2.535156 3.335938 2.109375 3.570312 C 1.683594 3.800781 1.417969 4.25 1.421875 4.734375 C 1.421875 5.46875 2.011719 6.058594 2.742188 6.058594 L 8.699219 6.058594 C 9.3125 6.058594 9.902344 5.816406 10.335938 5.382812 C 10.773438 4.945312 11.015625 4.355469 11.011719 3.742188 C 11.015625 3.128906 10.773438 2.539062 10.335938 2.105469 C 9.902344 1.667969 9.3125 1.425781 8.699219 1.425781 Z M 3.914062 5.355469 C 3.925781 5.371094 3.9375 5.382812 3.949219 5.394531 L 3.890625 5.394531 C 3.898438 5.382812 3.90625 5.367188 3.914062 5.355469 Z M 3.914062 5.355469 "/>
<path style=" stroke:none;fill-rule:nonzero;fill:url(#linear2);" d="M 10.914062 6.738281 C 9.511719 6.734375 8.230469 7.542969 7.628906 8.8125 C 7.40625 8.753906 7.175781 8.726562 6.945312 8.726562 C 5.847656 8.722656 4.863281 9.402344 4.472656 10.425781 C 3.871094 9.984375 3.070312 9.921875 2.40625 10.261719 C 1.742188 10.601562 1.324219 11.285156 1.324219 12.03125 C 1.324219 13.132812 2.207031 14.015625 3.308594 14.015625 C 3.390625 14.015625 3.46875 14.011719 3.546875 14.003906 C 3.578125 14.011719 3.609375 14.015625 3.636719 14.015625 L 10.914062 14.015625 C 11.878906 14.019531 12.808594 13.636719 13.492188 12.953125 C 14.171875 12.269531 14.554688 11.34375 14.554688 10.378906 C 14.554688 9.414062 14.171875 8.488281 13.492188 7.804688 C 12.808594 7.121094 11.882812 6.738281 10.914062 6.738281 Z M 10.914062 6.738281 "/>
<path style=" stroke:none;fill-rule:nonzero;fill:rgb(100%,100%,100%);fill-opacity:0.392;" d="M 10.914062 6.738281 C 9.511719 6.734375 8.230469 7.542969 7.628906 8.8125 C 7.40625 8.753906 7.175781 8.726562 6.945312 8.726562 C 5.847656 8.722656 4.863281 9.402344 4.472656 10.425781 C 3.871094 9.984375 3.070312 9.921875 2.40625 10.261719 C 1.742188 10.601562 1.324219 11.285156 1.324219 12.03125 L 1.324219 12.113281 C 1.367188 11.050781 2.246094 10.210938 3.308594 10.214844 C 3.742188 10.214844 4.144531 10.351562 4.472656 10.589844 C 4.863281 9.5625 5.847656 8.886719 6.945312 8.890625 C 7.175781 8.890625 7.40625 8.921875 7.628906 8.976562 C 8.230469 7.710938 9.511719 6.902344 10.914062 6.90625 C 12.894531 6.902344 14.511719 8.484375 14.550781 10.460938 C 14.554688 10.433594 14.554688 10.40625 14.554688 10.378906 C 14.558594 9.414062 14.175781 8.488281 13.492188 7.804688 C 12.808594 7.121094 11.882812 6.738281 10.914062 6.738281 Z M 10.914062 6.738281 "/>
<path style=" stroke:none;fill-rule:nonzero;fill:rgb(0%,0%,0%);fill-opacity:0.235;" d="M 14.550781 10.304688 C 14.515625 12.285156 12.894531 13.871094 10.914062 13.867188 L 3.636719 13.867188 C 3.605469 13.867188 3.578125 13.859375 3.546875 13.851562 C 3.46875 13.859375 3.390625 13.867188 3.308594 13.867188 C 2.242188 13.867188 1.363281 13.023438 1.324219 11.957031 L 1.324219 12.03125 C 1.324219 13.132812 2.207031 14.015625 3.308594 14.015625 C 3.390625 14.015625 3.46875 14.011719 3.546875 14.003906 C 3.578125 14.011719 3.605469 14.015625 3.636719 14.015625 L 10.914062 14.015625 C 11.878906 14.019531 12.804688 13.636719 13.488281 12.953125 C 14.171875 12.269531 14.554688 11.34375 14.554688 10.378906 C 14.554688 10.351562 14.554688 10.328125 14.550781 10.304688 Z M 14.550781 10.304688 "/>
<path style="fill:none;stroke-width:0.0937735;stroke-linecap:round;stroke-linejoin:miter;stroke:rgb(12.941177%,12.941177%,12.941177%);stroke-opacity:1;stroke-miterlimit:4;" d="M 10.914062 6.738281 C 9.511719 6.738281 8.230469 7.542969 7.628906 8.8125 C 7.40625 8.753906 7.175781 8.726562 6.945312 8.726562 C 5.847656 8.722656 4.863281 9.402344 4.472656 10.425781 C 3.871094 9.984375 3.070312 9.921875 2.40625 10.261719 C 1.742188 10.601562 1.324219 11.285156 1.324219 12.03125 C 1.324219 13.132812 2.207031 14.015625 3.308594 14.015625 C 3.390625 14.015625 3.46875 14.011719 3.546875 14.003906 C 3.578125 14.011719 3.609375 14.015625 3.636719 14.015625 L 10.914062 14.015625 C 11.878906 14.019531 12.808594 13.636719 13.492188 12.953125 C 14.171875 12.269531 14.554688 11.34375 14.554688 10.378906 C 14.554688 9.414062 14.171875 8.488281 13.492188 7.804688 C 12.808594 7.121094 11.882812 6.738281 10.914062 6.738281 Z M 10.914062 6.738281 "/>
<path style=" stroke:none;fill-rule:nonzero;fill:rgb(100%,100%,100%);fill-opacity:0.392;" d="M 8.777344 1.425781 C 7.976562 1.425781 7.273438 1.828125 6.859375 2.441406 C 6.492188 2.210938 6.066406 2.085938 5.632812 2.089844 C 4.609375 2.089844 3.757812 2.742188 3.539062 3.621094 C 3.132812 3.355469 2.613281 3.335938 2.1875 3.570312 C 1.761719 3.800781 1.496094 4.25 1.5 4.734375 L 1.5 4.816406 C 1.546875 4.121094 2.125 3.578125 2.820312 3.578125 C 3.085938 3.578125 3.332031 3.652344 3.539062 3.785156 C 3.757812 2.90625 4.609375 2.253906 5.632812 2.253906 C 6.089844 2.253906 6.511719 2.382812 6.859375 2.605469 C 7.289062 1.96875 8.011719 1.589844 8.777344 1.59375 C 10.03125 1.59375 11.046875 2.582031 11.089844 3.824219 L 11.089844 3.742188 C 11.09375 3.128906 10.847656 2.539062 10.414062 2.105469 C 9.980469 1.667969 9.390625 1.425781 8.777344 1.425781 Z M 3.992188 5.523438 C 3.984375 5.535156 3.976562 5.550781 3.96875 5.5625 L 4.027344 5.5625 C 4.015625 5.546875 4.003906 5.535156 3.992188 5.523438 Z M 3.992188 5.523438 "/>
<path style=" stroke:none;fill-rule:nonzero;fill:rgb(0%,0%,0%);fill-opacity:0.235;" d="M 11.011719 3.671875 C 10.976562 4.921875 9.949219 5.917969 8.699219 5.914062 L 2.742188 5.914062 C 2.039062 5.914062 1.460938 5.367188 1.421875 4.664062 L 1.421875 4.734375 C 1.421875 5.46875 2.011719 6.058594 2.742188 6.058594 L 8.699219 6.058594 C 9.3125 6.058594 9.902344 5.816406 10.335938 5.382812 C 10.773438 4.945312 11.015625 4.355469 11.011719 3.742188 Z M 3.914062 5.210938 C 3.90625 5.222656 3.898438 5.238281 3.890625 5.25 L 3.949219 5.25 C 3.9375 5.238281 3.925781 5.226562 3.914062 5.210938 Z M 3.914062 5.210938 "/>
<path style="fill:none;stroke-width:0.09375;stroke-linecap:square;stroke-linejoin:round;stroke:rgb(12.941177%,12.941177%,12.941177%);stroke-opacity:1;stroke-miterlimit:4;" d="M 8.699219 1.425781 C 7.898438 1.425781 7.195312 1.828125 6.78125 2.441406 C 6.414062 2.210938 5.988281 2.085938 5.554688 2.089844 C 4.53125 2.089844 3.679688 2.742188 3.460938 3.621094 C 3.054688 3.355469 2.535156 3.335938 2.109375 3.570312 C 1.683594 3.800781 1.417969 4.25 1.421875 4.734375 C 1.421875 5.46875 2.011719 6.058594 2.742188 6.058594 L 8.699219 6.058594 C 9.3125 6.058594 9.902344 5.816406 10.335938 5.382812 C 10.773438 4.945312 11.015625 4.355469 11.011719 3.742188 C 11.015625 3.128906 10.773438 2.539062 10.335938 2.105469 C 9.902344 1.667969 9.3125 1.425781 8.699219 1.425781 Z M 3.914062 5.355469 C 3.925781 5.371094 3.9375 5.382812 3.949219 5.394531 L 3.890625 5.394531 C 3.898438 5.382812 3.90625 5.367188 3.914062 5.355469 Z M 3.914062 5.355469 "/>
</g>
</svg>

<svg xmlns="http://www.w3.org/2000/svg" width="16pt" height="16pt" viewBox="0 0 16 16"><defs><linearGradient id="a" gradientUnits="userSpaceOnUse" x1="254" y1="233.5" x2="254" y2="254.667" gradientTransform="matrix(.03125 0 0 .03125 0 6.554)"><stop offset="0" stop-opacity=".275"/><stop offset="1" stop-opacity="0"/></linearGradient><radialGradient id="b" gradientUnits="userSpaceOnUse" cx="450.909" cy="189.579" fx="450.909" fy="189.579" r="21.167" gradientTransform="matrix(0 -.03907 -.07032 0 24.577 31.632)"><stop offset="0" stop-opacity=".314"/><stop offset=".222" stop-opacity=".275"/><stop offset="1" stop-opacity="0"/></radialGradient><radialGradient id="c" gradientUnits="userSpaceOnUse" cx="450.909" cy="189.579" fx="450.909" fy="189.579" r="21.167" gradientTransform="matrix(0 .03907 .07032 0 -9.858 -3.93)"><stop offset="0" stop-opacity=".314"/><stop offset=".222" stop-opacity=".275"/><stop offset="1" stop-opacity="0"/></radialGradient><radialGradient id="d" gradientUnits="userSpaceOnUse" cx="450.909" cy="189.579" fx="450.909" fy="189.579" r="21.167" gradientTransform="matrix(0 -.03907 .07032 0 -9.858 31.632)"><stop offset="0" stop-opacity=".314"/><stop offset=".222" stop-opacity=".275"/><stop offset="1" stop-opacity="0"/></radialGradient><radialGradient id="e" gradientUnits="userSpaceOnUse" cx="450.909" cy="189.579" fx="450.909" fy="189.579" r="21.167" gradientTransform="matrix(0 .03907 -.07032 0 24.577 -3.93)"><stop offset="0" stop-opacity=".314"/><stop offset=".222" stop-opacity=".275"/><stop offset="1" stop-opacity="0"/></radialGradient><linearGradient id="f" gradientUnits="userSpaceOnUse" x1="211.667" y1="-20.5" x2="211.667" y2="-168.667" gradientTransform="matrix(.03125 0 0 .03125 -.078 6.698)"><stop offset="0" stop-color="#90a4ae"/><stop offset="1" stop-color="#b0bec5"/></linearGradient><linearGradient id="g" gradientUnits="userSpaceOnUse" x1="960" y1="1695.118" x2="960" y2="815.118" gradientTransform="rotate(.882) scale(.00827)"><stop offset="0" stop-color="#90a4ae"/><stop offset="1" stop-color="#b0bec5"/></linearGradient></defs><path d="M3.309 13.852h8.101v.66H3.31zm0 0" fill="url(#a)"/><path d="M11.41 13.852h1.324v-.66H11.41zm0 0" fill="url(#b)"/><path d="M3.309 13.852H1.984v.66H3.31zm0 0" fill="url(#c)"/><path d="M3.309 13.852H1.984v-.66H3.31zm0 0" fill="url(#d)"/><path d="M11.41 13.852h1.324v.66H11.41zm0 0" fill="url(#e)"/><path d="M8.7 1.426c-.802 0-1.505.402-1.919 1.015a2.267 2.267 0 0 0-1.226-.351c-1.024 0-1.875.652-2.094 1.531a1.32 1.32 0 0 0-2.04 1.113c0 .735.59 1.325 1.321 1.325H8.7a2.31 2.31 0 0 0 2.313-2.317 2.31 2.31 0 0 0-2.313-2.316zm-4.786 3.93c.012.015.023.027.035.039h-.058a.343.343 0 0 0 .023-.04zm0 0" fill="url(#f)"/><path d="M10.914 6.738A3.63 3.63 0 0 0 7.63 8.812a2.623 2.623 0 0 0-.684-.085 2.638 2.638 0 0 0-2.472 1.699 1.98 1.98 0 0 0-3.148 1.605c0 1.102.882 1.985 1.984 1.985.082 0 .16-.004.238-.012a.355.355 0 0 0 .09.012h7.277a3.631 3.631 0 0 0 3.64-3.637 3.634 3.634 0 0 0-3.64-3.64zm0 0" fill="url(#g)"/><path d="M10.914 6.738A3.63 3.63 0 0 0 7.63 8.812a2.623 2.623 0 0 0-.684-.085 2.638 2.638 0 0 0-2.472 1.699 1.98 1.98 0 0 0-3.148 1.605v.082a1.978 1.978 0 0 1 1.984-1.898c.433 0 .836.137 1.164.375a2.638 2.638 0 0 1 2.472-1.7 2.8 2.8 0 0 1 .684.087 3.627 3.627 0 0 1 3.285-2.07 3.628 3.628 0 0 1 3.637 3.554c.004-.027.004-.055.004-.082a3.634 3.634 0 0 0-3.64-3.64zm0 0" fill="#fff" fill-opacity=".392"/><path d="M14.55 10.305a3.627 3.627 0 0 1-3.636 3.562H3.637c-.032 0-.059-.008-.09-.015-.078.007-.156.015-.238.015a1.983 1.983 0 0 1-1.985-1.91v.074c0 1.102.883 1.985 1.985 1.985.082 0 .16-.004.238-.012a.355.355 0 0 0 .09.012h7.277a3.631 3.631 0 0 0 3.64-3.637c0-.027 0-.05-.003-.074zm0 0" fill-opacity=".235"/><path d="M10.914 6.738A3.63 3.63 0 0 0 7.63 8.813a2.623 2.623 0 0 0-.684-.086 2.638 2.638 0 0 0-2.472 1.699 1.98 1.98 0 0 0-3.148 1.605c0 1.102.882 1.985 1.984 1.985.082 0 .16-.004.238-.012a.355.355 0 0 0 .09.012h7.277a3.631 3.631 0 0 0 3.64-3.637 3.634 3.634 0 0 0-3.64-3.64zm0 0" fill="none" stroke-width=".09377353" stroke-linecap="round" stroke="#212121"/><path d="M8.777 1.426c-.8 0-1.504.402-1.918 1.015a2.267 2.267 0 0 0-1.226-.351c-1.024 0-1.875.652-2.094 1.531A1.32 1.32 0 0 0 1.5 4.734l.001.082a1.322 1.322 0 0 1 1.32-1.238c.266 0 .512.074.72.207.218-.879 1.07-1.531 2.093-1.531.457 0 .879.129 1.226.351a2.303 2.303 0 0 1 1.918-1.011c1.254 0 2.27.988 2.313 2.23v-.082a2.31 2.31 0 0 0-2.313-2.316zM3.992 5.523a.343.343 0 0 0-.023.04h.058c-.011-.016-.023-.028-.035-.04zm0 0" fill="#fff" fill-opacity=".392"/><path d="M11.012 3.672a2.31 2.31 0 0 1-2.313 2.242H2.742a1.32 1.32 0 0 1-1.32-1.25v.07c0 .735.59 1.325 1.32 1.325H8.7a2.31 2.31 0 0 0 2.313-2.317v-.07zM3.914 5.21a.343.343 0 0 1-.023.039h.058c-.011-.012-.023-.023-.035-.04zm0 0" fill-opacity=".235"/><path d="M8.7 1.426c-.802 0-1.505.402-1.919 1.015a2.267 2.267 0 0 0-1.226-.351c-1.024 0-1.875.652-2.094 1.531a1.32 1.32 0 0 0-2.04 1.113c0 .735.59 1.325 1.321 1.325H8.7a2.31 2.31 0 0 0 2.313-2.317 2.31 2.31 0 0 0-2.313-2.316zm-4.786 3.93a.352.352 0 0 0 .035.039h-.058a.344.344 0 0 0 .023-.04zm0 0" fill="none" stroke-width=".09375" stroke-linecap="square" stroke-linejoin="round" stroke="#212121"/></svg>
